; generated by PrusaSlicer 2.5.2+win64 on 2023-08-07 at 17:22:36 UTC


;
;

;
;

;
;
; 

; external perimeters extrusion width = 0.45mm
; perimeters extrusion width = 0.45mm
; infill extrusion width = 0.45mm
; solid infill extrusion width = 0.45mm
; top infill extrusion width = 0.45mm
; first layer extrusion width = 0.50mm

M73 P0 R35
M201 X2500 Y2500 Z200 E2500 ; sets maximum accelerations, mm/sec^2
M203 X200 Y200 Z40 E100 ; sets maximum feedrates, mm / sec
M204 P2000 R1200 T2000 ; sets acceleration (P, T) and retract acceleration (R), mm/sec^2
M205 X8.00 Y8.00 Z2.00 E10.00 ; sets the jerk limits, mm/sec
M205 S0 T0 ; sets the minimum extruding and travel feed rate, mm/sec
M107
;TYPE:Custom
M17 ; enable steppers
M862.3 P "MK4" ; printer model check
M862.1 P0.4 ; nozzle diameter check
M330 SYSLOG
M331 loadcell_raw
M331 loadcell_threshold
M331 loadcell_hysteresis
M331 loadcell_scale
M331 probe_z
M331 probe_z_raw
M331 probe_z_diff
M331 home_diff
M331 fsensor_raw
M331 temp_hbr
M331 temp_bed
M331 temp_noz
M331 temp_brd
M331 ttemp_bed
M331 ttemp_noz
M331 pos_z
M331 fan_speed
M331 fan_hbr_speed
M331 tmc_sg_x
M331 tmc_sg_y
M331 tmc_sg_z
M331 tmc_sg_e

M555 X77.232 Y87.9607 W95.536 H27.1584

G90 ; use absolute coordinates
M92 E380 ; set steps/mm for extruder
M83 ; extruder relative mode

M140 S60 ; set bed temp

M104 S170 ; set extruder temp for bed leveling
M109 R170 ; wait for temp


M84 E ; turn off E motor

G28 ; home all without mesh bed level

; probe to clean the nozzle
G1 X109.232 Y87.9607 Z5 F4800

M302 S160 ; lower cold extrusion limit to 160C


G1 E-2 F2400 ; retraction


M84 E ; turn off E motor

G29 P9 X77.232 Y87.9607 W32 H4

M106 S100

G0 X77.232 Y87.9607 Z40 F10000

M190 S60 ; wait for bed temp

M107

;
; MBL
;
M84 E ; turn off E motor
G29 ; mesh bed leveling
M104 S215 ; set extruder temp
G0 X77.232 Y87.4607 Z30 F4800

M109 S215 ; wait for extruder temp
G1 Z0.2 F720
G92 E0

M569 S0 E ; set spreadcycle mode for extruder

;
; Extrude purge line
;

G1 E2 F2400 ; deretraction


; move right
G1 X109.232 E4.8 F1000
; move down
G1 Y85.9607 E0.225 F1000
; move left
G1 X77.232 E9.6 F800

G92 E0
M221 S100 ; set flow to 100%
G21 ; set units to millimeters
G90 ; use absolute coordinates
M83 ; use relative distances for extrusion
M900 K0.06 ; Filament gcode

M142 S36 ; set heatbreak target temp
M107
;LAYER_CHANGE
;Z:0.2
;HEIGHT:0.2
;BEFORE_LAYER_CHANGE
G92 E0.0
;0.2


G1 E-.8 F2100
G1 Z.2 F720
;AFTER_LAYER_CHANGE
;0.2
; printing object BT703_B_trajan20_21_Zeichenmaschine_v2_Griff.stl id:0 copy 0
G1 Z.4
G1 X167.985 Y104.389 F12000
G1 Z.2 F720
G1 E.8 F1500
M204 P600
;TYPE:Perimeter
;WIDTH:0.499999
G1 F1200
G1 X168.071 Y104.26 E.00593
G1 X168.139 Y103.963 E.01157
G1 X168.139 Y92.868 E.42169
G1 X171.861 Y92.868 E.14144
G1 X171.861 Y106.55 E.52
G1 X171.23 Y106.777 E.02549
G1 X169.081 Y107.469 E.08579
G1 X166.914 Y108.13 E.0861
G1 X165.185 Y108.631 E.06843
G1 X163.172 Y109.186 E.07936
G1 X161.82 Y109.54 E.05313
G1 X160.14 Y109.964 E.06582
G1 X158.11 Y110.447 E.07934
G1 X156.073 Y110.901 E.07932
G1 X154.029 Y111.327 E.07934
G1 X151.98 Y111.723 E.07932
G1 X149.927 Y112.09 E.07927
G1 X146.833 Y112.587 E.11909
G1 X144.768 Y112.881 E.07927
G1 X142.698 Y113.146 E.07932
G1 X140.624 Y113.382 E.07933
G1 X138.547 Y113.588 E.07933
G1 X136.468 Y113.765 E.07932
G1 X134.386 Y113.913 E.07933
G1 X132.302 Y114.031 E.07932
G1 X130.217 Y114.12 E.07933
G1 X128.13 Y114.179 E.07932
G1 X126.045 Y114.208 E.07927
G1 X122.912 Y114.197 E.11908
G1 X120.826 Y114.153 E.07928
G1 X118.741 Y114.079 E.07931
G1 X116.656 Y113.976 E.07932
G1 X114.573 Y113.843 E.07932
G1 X112.492 Y113.68 E.07933
G1 X110.414 Y113.489 E.07932
G1 X108.339 Y113.268 E.07932
G1 X106.267 Y113.017 E.07933
G1 X104.198 Y112.738 E.07933
G1 X102.134 Y112.429 E.07931
G1 X100.075 Y112.09 E.07934
G1 X98.02 Y111.723 E.07933
G1 X95.971 Y111.327 E.07932
G1 X93.927 Y110.901 E.07934
G1 X91.891 Y110.447 E.07931
G1 X89.86 Y109.964 E.07933
G1 X87.837 Y109.452 E.07932
G1 X85.82 Y108.912 E.07933
G1 X83.811 Y108.343 E.07936
G1 X82.364 Y107.914 E.05736
G1 X80.276 Y107.266 E.08311
G1 X78.141 Y106.567 E.08537
G1 X78.139 Y92.868 E.52066
G1 X81.861 Y92.868 E.14144
G1 X81.861 Y103.963 E.42169
G1 X81.929 Y104.26 E.01157
G1 X82.05 Y104.435 E.00809
G1 X82.19 Y104.549 E.00688
G1 X82.362 Y104.623 E.00711
G1 X85.155 Y105.404 E.11023
G1 X87.294 Y105.964 E.08404
G1 X90.33 Y106.702 E.11872
G1 X92.668 Y107.227 E.09108
G1 X94.83 Y107.677 E.08395
G1 X96.999 Y108.097 E.08395
G1 X98.628 Y108.388 E.06289
G1 X101.354 Y108.842 E.10502
G1 X103.541 Y109.168 E.08405
G1 X106.824 Y109.596 E.12584
G1 X109.013 Y109.842 E.08373
G1 X111.218 Y110.057 E.08418
G1 X113.413 Y110.24 E.08371
G1 X115.625 Y110.391 E.0843
G1 X118.93 Y110.558 E.12575
G1 X121.137 Y110.63 E.08395
G1 X123.158 Y110.667 E.07681
G1 X124.448 Y110.678 E.04902
G1 X126.659 Y110.67 E.08404
G1 X128.867 Y110.63 E.08395
G1 X131.075 Y110.558 E.08395
G1 X133.281 Y110.454 E.08395
G1 X135.293 Y110.332 E.07658
G1 X136.591 Y110.239 E.04947
M73 P1 R35
G1 X138.792 Y110.056 E.08395
G1 X140.991 Y109.841 E.08395
G1 X143.187 Y109.595 E.08399
G1 X146.474 Y109.165 E.126
G1 X149.747 Y108.666 E.12583
G1 X151.926 Y108.293 E.08405
G1 X155.167 Y107.678 E.12537
G1 X158.408 Y106.99 E.12593
G1 X161.648 Y106.229 E.12649
G1 X164.856 Y105.401 E.12589
G1 X167.638 Y104.623 E.1098
G1 X167.764 Y104.574 E.00512
G1 X167.946 Y104.435 E.00875
M204 P1000
G1 X167.623 Y104.116 F12000
M204 P600
;TYPE:External perimeter
G1 F1200
G1 X167.682 Y103.963 E.00623
G1 X167.682 Y92.411 E.43906
G1 X172.318 Y92.411 E.17619
G1 X172.318 Y105.895 E.5125
G1 X172.292 Y106.744 E.03225
G1 X172.179 Y106.921 E.00798
G1 X171.378 Y107.21 E.0324
G1 X169.218 Y107.905 E.08623
G1 X167.044 Y108.568 E.08636
G1 X165.309 Y109.071 E.06866
G1 X163.291 Y109.627 E.07958
G1 X161.933 Y109.983 E.05332
G1 X160.249 Y110.408 E.06602
G1 X158.212 Y110.892 E.07958
G1 X156.169 Y111.348 E.07956
G1 X154.119 Y111.775 E.07959
G1 X152.064 Y112.172 E.07956
G1 X150.003 Y112.541 E.07955
G1 X146.902 Y113.039 E.11939
G1 X144.829 Y113.334 E.07955
G1 X142.753 Y113.6 E.07957
G1 X140.672 Y113.836 E.07957
G1 X138.589 Y114.043 E.07957
G1 X136.503 Y114.221 E.07956
G1 X134.415 Y114.369 E.07957
G1 X132.324 Y114.488 E.07957
G1 X130.233 Y114.576 E.07957
G1 X128.14 Y114.636 E.07957
G1 X126.047 Y114.665 E.07955
G1 X122.906 Y114.654 E.11938
G1 X120.813 Y114.61 E.07956
G1 X118.721 Y114.536 E.07956
G1 X116.63 Y114.432 E.07957
G1 X114.541 Y114.299 E.07957
G1 X112.454 Y114.136 E.07958
G1 X110.369 Y113.944 E.07957
G1 X108.287 Y113.722 E.07957
G1 X106.209 Y113.471 E.07957
G1 X104.134 Y113.19 E.07957
G1 X102.064 Y112.88 E.07956
G1 X99.997 Y112.541 E.07958
G1 X97.936 Y112.172 E.07957
G1 X95.881 Y111.775 E.07956
G1 X93.831 Y111.348 E.07958
G1 X91.788 Y110.892 E.07956
G1 X89.751 Y110.408 E.07958
G1 X87.721 Y109.894 E.07956
G1 X85.699 Y109.352 E.07958
G1 X83.684 Y108.782 E.07959
G1 X82.232 Y108.351 E.05758
G1 X80.137 Y107.701 E.08335
G1 X77.987 Y106.998 E.08598
G1 X77.759 Y106.864 E.01003
G1 X77.684 Y106.688 E.00729
G1 X77.682 Y92.411 E.54262
M73 P1 R34
G1 X82.318 Y92.411 E.17619
G1 X82.318 Y103.963 E.43906
G1 X82.341 Y104.062 E.00386
G1 X82.485 Y104.183 E.00716
G1 X85.271 Y104.962 E.10995
G1 X87.402 Y105.52 E.08373
G1 X90.426 Y106.255 E.11826
G1 X92.758 Y106.778 E.09084
G1 X94.914 Y107.228 E.08371
G1 X97.076 Y107.646 E.0837
G1 X99.244 Y108.033 E.08371
G1 X101.418 Y108.389 E.0837
G1 X103.6 Y108.714 E.08386
G1 X106.873 Y109.142 E.12545
G1 X109.06 Y109.387 E.08366
G1 X111.252 Y109.601 E.0837
G1 X113.447 Y109.784 E.0837
G1 X115.648 Y109.935 E.08386
G1 X118.946 Y110.101 E.12549
G1 X121.145 Y110.173 E.0836
G1 X124.448 Y110.22 E.12558
G1 X126.65 Y110.213 E.08368
G1 X128.852 Y110.173 E.0837
G1 X131.053 Y110.101 E.0837
G1 X133.253 Y109.998 E.08371
G1 X136.553 Y109.784 E.12568
G1 X138.748 Y109.601 E.0837
G1 X140.94 Y109.387 E.0837
G1 X143.129 Y109.141 E.08372
G1 X146.405 Y108.714 E.12558
G1 X149.67 Y108.215 E.12552
G1 X151.841 Y107.844 E.08374
G1 X155.086 Y107.228 E.12552
G1 X158.318 Y106.542 E.12559
G1 X161.534 Y105.786 E.12555
G1 X164.733 Y104.961 E.12554
G1 X167.515 Y104.183 E.1098
G1 X167.572 Y104.148 E.00255
M204 P1000
G1 X167.785 Y104.141 F12000
G1 E-.64 F2100
;WIPE_START
G1 F9600
G1 X167.682 Y103.963 E-.04466
G1 X167.682 Y103.446 E-.10734
;WIPE_END
G1 E-.008 F2100
G1 Z.4 F720
G1 X171.655 Y93.998 F12000
G1 Z.2 F720
G1 E.8 F1500
M204 P600
;TYPE:Solid infill
;WIDTH:0.500346
G1 F1200
G1 X170.936 Y93.279 E.03868
G1 X170.289 Y93.279 E.0246
G1 X171.449 Y94.439 E.06241
G1 X171.449 Y95.086 E.0246
G1 X169.642 Y93.279 E.09721
G1 X168.995 Y93.279 E.0246
G1 X171.449 Y95.733 E.132
G1 X171.449 Y96.38 E.0246
G1 X168.551 Y93.481 E.15593
G1 X168.551 Y94.128 E.0246
G1 X171.449 Y97.027 E.15593
G1 X171.449 Y97.674 E.0246
G1 X168.551 Y94.775 E.15593
G1 X168.551 Y95.422 E.0246
G1 X171.449 Y98.321 E.15593
G1 X171.449 Y98.968 E.0246
G1 X168.55 Y96.069 E.15593
G1 X168.55 Y96.716 E.0246
G1 X171.449 Y99.615 E.15593
G1 X171.449 Y100.261 E.0246
G1 X168.55 Y97.362 E.15594
G1 X168.55 Y98.009 E.0246
G1 X171.449 Y100.908 E.15594
G1 X171.449 Y101.555 E.0246
G1 X168.55 Y98.656 E.15594
G1 X168.55 Y99.303 E.0246
G1 X171.449 Y102.202 E.15594
G1 X171.449 Y102.849 E.0246
G1 X168.55 Y99.95 E.15594
G1 X168.55 Y100.597 E.0246
G1 X171.449 Y103.496 E.15594
G1 X171.449 Y104.143 E.0246
G1 X168.55 Y101.244 E.15594
G1 X168.55 Y101.891 E.0246
G1 X171.449 Y104.79 E.15594
G1 X171.449 Y105.437 E.0246
G1 X168.55 Y102.538 E.15594
G1 X168.55 Y103.184 E.0246
G1 X171.449 Y106.084 E.15594
G1 X171.449 Y106.261 E.00674
G1 X171.104 Y106.385 E.01395
G1 X168.55 Y103.831 E.13738
G1 X168.534 Y104.157 E.01241
G1 X168.46 Y104.388 E.00922
G1 X170.615 Y106.543 E.11593
G1 X170.126 Y106.701 E.01955
G1 X168.189 Y104.764 E.10416
G1 X168.015 Y104.906 E.00856
G1 X167.785 Y105.006 E.00954
G1 X169.636 Y106.858 E.0996
G1 X169.147 Y107.016 E.01955
G1 X167.281 Y105.15 E.10035
G1 X166.776 Y105.291 E.01997
G1 X168.654 Y107.169 E.101
G1 X168.158 Y107.32 E.01971
G1 X166.27 Y105.433 E.10153
G1 X165.765 Y105.574 E.01997
G1 X167.662 Y107.471 E.10206
G1 X167.166 Y107.623 E.01971
G1 X165.259 Y105.715 E.10259
G1 X164.75 Y105.853 E.02005
G1 X166.669 Y107.772 E.10321
G1 X166.168 Y107.918 E.01986
G1 X164.236 Y105.986 E.1039
G1 X163.722 Y106.119 E.0202
G1 X165.666 Y108.063 E.10458
G1 X165.165 Y108.208 E.01986
G1 X163.208 Y106.251 E.10527
M73 P2 R34
G1 X162.693 Y106.384 E.0202
G1 X164.658 Y108.349 E.10571
G1 X164.151 Y108.489 E.02001
G1 X162.179 Y106.517 E.10609
G1 X161.663 Y106.648 E.02024
G1 X163.644 Y108.629 E.10656
G1 X163.137 Y108.768 E.02001
G1 X161.139 Y106.771 E.10745
G1 X160.616 Y106.894 E.02047
G1 X162.623 Y108.902 E.108
G1 X162.109 Y109.034 E.02021
G1 X160.092 Y107.017 E.10848
G1 X159.568 Y107.14 E.02047
G1 X161.594 Y109.166 E.10897
G1 X161.079 Y109.298 E.02021
G1 X159.044 Y107.263 E.10945
G1 X158.52 Y107.386 E.02047
G1 X160.564 Y109.43 E.10994
G1 X160.05 Y109.562 E.02021
G1 X157.987 Y107.5 E.11095
G1 X157.453 Y107.613 E.02075
G1 X159.527 Y109.687 E.11155
G1 X159.005 Y109.811 E.02043
G1 X156.92 Y107.726 E.11214
G1 X156.386 Y107.84 E.02075
G1 X158.482 Y109.935 E.11274
G1 X158.017 Y110.046 E.01817
G1 X157.959 Y110.059 E.00228
G1 X155.852 Y107.953 E.11329
G1 X155.319 Y108.066 E.02075
G1 X157.43 Y110.177 E.11355
G1 X156.901 Y110.295 E.02061
G1 X154.776 Y108.171 E.11427
G1 X154.233 Y108.274 E.02105
G1 X156.372 Y110.413 E.11506
G1 X155.841 Y110.529 E.02066
G1 X153.689 Y108.377 E.11577
G1 X153.145 Y108.48 E.02105
G1 X155.306 Y110.641 E.11621
G1 X154.77 Y110.752 E.0208
G1 X152.602 Y108.583 E.11666
G1 X152.058 Y108.686 E.02105
G1 X154.235 Y110.864 E.11711
G1 X153.696 Y110.972 E.02089
G1 X151.506 Y108.782 E.1178
G1 X150.954 Y108.876 E.02131
G1 X153.154 Y111.077 E.11836
G1 X152.612 Y111.182 E.021
G1 X150.402 Y108.971 E.11892
G1 X149.849 Y109.065 E.02131
G1 X152.07 Y111.287 E.11947
G1 X151.524 Y111.387 E.02114
G1 X149.289 Y109.152 E.12021
G1 X148.728 Y109.238 E.02159
G1 X150.975 Y111.485 E.12088
G1 X150.426 Y111.583 E.0212
G1 X148.166 Y109.323 E.12155
G1 X147.605 Y109.409 E.02159
G1 X149.877 Y111.681 E.12222
G1 X149.32 Y111.771 E.02146
G1 X147.044 Y109.495 E.12244
G1 X146.482 Y109.579 E.02163
G1 X148.763 Y111.86 E.1227
G1 X148.205 Y111.95 E.02147
G1 X145.909 Y109.654 E.1235
G1 X145.337 Y109.729 E.02195
G1 X147.648 Y112.039 E.12429
G1 X147.091 Y112.129 E.02147
G1 X144.765 Y109.803 E.12509
G1 X144.193 Y109.878 E.02195
G1 X146.529 Y112.215 E.12568
G1 X145.963 Y112.295 E.02175
G1 X143.621 Y109.953 E.126
G1 X143.046 Y110.025 E.02205
G1 X145.397 Y112.376 E.12648
G1 X144.831 Y112.457 E.02175
G1 X142.464 Y110.09 E.12731
G1 X141.882 Y110.155 E.02226
G1 X144.259 Y112.532 E.12783
G1 X143.685 Y112.605 E.02199
G1 X141.301 Y110.221 E.12826
G1 X140.715 Y110.282 E.0224
G1 X143.112 Y112.678 E.12892
G1 X142.649 Y112.738 E.01776
G1 X142.537 Y112.75 E.00427
G1 X140.126 Y110.339 E.1297
G1 X139.536 Y110.397 E.02252
G1 X141.956 Y112.816 E.13015
G1 X141.375 Y112.882 E.02224
G1 X138.947 Y110.454 E.13061
G1 X138.351 Y110.506 E.02274
G1 X140.794 Y112.949 E.1314
G1 X140.209 Y113.01 E.0224
G1 X137.754 Y110.555 E.13203
G1 X137.157 Y110.605 E.02279
G1 X139.62 Y113.068 E.1325
G1 X139.032 Y113.127 E.02249
G1 X136.559 Y110.654 E.13303
G1 X135.951 Y110.693 E.02315
G1 X138.443 Y113.184 E.134
G1 X137.846 Y113.235 E.02276
G1 X135.344 Y110.733 E.13461
G1 X134.737 Y110.772 E.02315
G1 X137.25 Y113.286 E.13521
G1 X136.654 Y113.337 E.02276
G1 X134.129 Y110.812 E.13582
G1 X133.522 Y110.851 E.02315
G1 X136.053 Y113.382 E.13615
G1 X135.449 Y113.425 E.02303
G1 X132.908 Y110.884 E.1367
G1 X132.29 Y110.913 E.02353
G1 X134.845 Y113.468 E.13744
G1 X134.239 Y113.509 E.02309
G1 X131.672 Y110.942 E.1381
G1 X131.053 Y110.97 E.02355
G1 X133.627 Y113.544 E.13843
G1 X133.015 Y113.579 E.02332
G1 X130.427 Y110.991 E.13921
G1 X129.8 Y111.011 E.02384
G1 X132.402 Y113.613 E.13998
G1 X131.784 Y113.641 E.02356
G1 X129.174 Y111.031 E.14039
G1 X128.542 Y111.047 E.02401
G1 X131.163 Y113.668 E.14096
G1 X130.543 Y113.694 E.02362
G1 X127.907 Y111.058 E.14177
G1 X127.272 Y111.07 E.02417
G1 X129.918 Y113.717 E.14236
G1 X129.289 Y113.734 E.02394
G1 X126.636 Y111.081 E.14272
G1 X125.991 Y111.083 E.02452
G1 X128.66 Y113.752 E.14356
G1 X128.03 Y113.769 E.02398
G1 X125.347 Y111.086 E.14432
G1 X124.702 Y111.088 E.02452
G1 X127.392 Y113.778 E.14469
G1 X126.754 Y113.787 E.02426
G1 X124.05 Y111.083 E.14543
G1 X123.394 Y111.074 E.02497
G1 X126.116 Y113.796 E.14642
G1 X125.468 Y113.795 E.02464
G1 X122.738 Y111.064 E.14688
G1 X122.081 Y111.055 E.02497
G1 X124.819 Y113.793 E.14726
G1 X124.17 Y113.79 E.02469
G1 X121.425 Y111.045 E.14765
G1 X120.762 Y111.029 E.02523
G1 X123.521 Y113.788 E.1484
G1 X122.871 Y113.785 E.02472
G1 X120.093 Y111.007 E.1494
G1 X119.425 Y110.986 E.02544
G1 X122.21 Y113.771 E.14981
G1 X121.549 Y113.757 E.02514
G1 X118.753 Y110.961 E.15037
G1 X118.072 Y110.927 E.02595
G1 X120.888 Y113.743 E.15147
G1 X120.218 Y113.72 E.0255
G1 X117.391 Y110.892 E.15208
G1 X116.709 Y110.858 E.02595
G1 X119.547 Y113.696 E.15266
G1 X118.877 Y113.672 E.02552
G1 X116.028 Y110.823 E.15323
G1 X115.342 Y110.784 E.02614
G1 X118.198 Y113.64 E.15362
G1 X117.517 Y113.606 E.02592
G1 X114.647 Y110.737 E.15437
G1 X113.953 Y110.689 E.02648
G1 X116.836 Y113.573 E.15512
G1 X116.148 Y113.531 E.02624
G1 X113.256 Y110.639 E.15554
G1 X112.551 Y110.581 E.02693
G1 X115.457 Y113.487 E.15633
G1 X114.766 Y113.443 E.02633
G1 X111.845 Y110.522 E.15711
G1 X111.139 Y110.463 E.02695
G1 X114.067 Y113.391 E.15749
G1 X113.365 Y113.336 E.02677
G1 X110.422 Y110.393 E.15831
G1 X109.705 Y110.323 E.0274
G1 X112.664 Y113.281 E.15914
G1 X112.527 Y113.271 E.0052
G1 X111.953 Y113.218 E.02193
G1 X108.988 Y110.253 E.15948
G1 X108.26 Y110.171 E.02788
G1 X111.24 Y113.152 E.16034
G1 X110.528 Y113.086 E.02722
G1 X107.531 Y110.089 E.1612
G1 X106.802 Y110.007 E.02789
G1 X109.805 Y113.01 E.16152
G1 X109.081 Y112.933 E.02769
G1 X106.059 Y109.911 E.16255
G1 X105.315 Y109.814 E.02854
G1 X108.356 Y112.855 E.1636
G1 X107.621 Y112.767 E.02819
M73 P3 R34
G1 X104.571 Y109.717 E.16404
G1 X103.827 Y109.62 E.02854
G1 X106.885 Y112.678 E.16448
G1 X106.319 Y112.609 E.02168
G1 X106.146 Y112.586 E.00663
